X: 272
Q: "Slowish"
M: C
L: 1/16
K: D
V: 1
~B3d ~F3A ~G3B E2G2 | F2A2 D2EF (GF).E.D (DC).B,.A, |]
V: 2 clef=bass middle=d
z2 |\
[d4D4][d4D4] [d4D4][d4D4] | [d4D4][d4D4] [g4G4][g4G4] |\
[d4D4][d4D4] [d4D4][d4D4] | [e4E4][e4E4] [c4C4][A4A,4] |
[d4D4][d4D4] [d4D4][d4D4] | [d4D4][d4D4] [g4G4][d4D4] |\
[g4G4][c4C4] [d4D4][d4D4] | [c4C4][d4D4] [A4A,4][A4A,4] ||
[d4D4][d4D4] [d4D4][d4D4] | [d4D4][f4F4] [a4A4][g4G4] |\
[d4D4][f4F4] [g4G4][f4F4] | [e4E4][d4D4] [d4D4][A4A,4] |
[d4D4][d4D4] [d4D4][d4D4] | [d4D4][f4F4] [a4A4][g4G4] |\
[g4G4][d4D4] [B4B,4][c4C4] | [d4D4][d4D4] [A4A,4][A4A,4] |]


